!!!OTL: 771. Zum Abschied.
!!!ODT: 1829
!!!ARE: Europa, Mitteleuropa, Deutschland, Niederrhein
!!!SCT: E0771
!!!TXL: @@DE
!!!YEM: Copyright 1995, estate of Helmut Schaffrath.
**kern	**text
*ICvox	*
*M2/4	*
*k[b-]	*
*F:	*
=1	=1
!LO:TX:a:t=Sehr mäßig.	!
!LO:TX:a:t=Mel. vom Niederrhein 1829.	!
{8f	Schätʒ-
8a	-chen,
8cc	reich
8cc	mir
=2	=2
8cc	dei-
8cc	-ne
(8aL	Hand
8fJ)}	.
=3	=3
{8.dd	ʒum
16cc	Be-
8b-	-ſchluß
8a	und
=4	=4
8g	Un-
8cc	-ter-
4cc;}	-pfand!
=5	=5
{8.g	Ʒum
16b-	Be-
(8b-L	-ſchluß
8aJ)	.
=6	=6
8.a	ei-
16g	-nen
(8g^L	Kuß,
8fJ)}	.
=7	=7
{8f	weil
8dd	ich
8cc	von
8b-	dir
=8	=8
8a	ſchei,
8g	den
4f}	muß.
=9	=9
{8.g	Ʒum
16b-	Be-
(8b-L	-ſchluß
8aJ)	.
=10	=10
8.a	ei-
16g	-nen
(8g^L	Kuß,
8fJ)}	.
=11	=11
{8f	weil
8dd	ich
8cc	von
8b-	dir
=12	=12
8a	ſchei,
8g	den
4f}	muß.
==	==
!!!AGN: Abschieds - Lied. Liebe
!!!ONB: ESAC (Essen Associative Code) Database: ERK2
!!!AMT: simple duple
!!!AIN: vox
!!!EED: Helmut Schaffrath
!!!EEV: 1.0
!!!GTL: Abschieds- und Wanderlieder
!!!URL-scan: https://rosdok.uni-rostock.de/mcrviewer/recordIdentifier/rosdok_ppn745177662/iview2/phys_0578.iview2?x=191.0544085554891&y=2294.8579858504236&scale=0.7029437510502773&rotation=0&layout=singlePageLayout
!!!ENC: Anna Maria Matuszewska
!!!EEV: 2024/12/16
*-	*-
